src/catppuccin-frappe-sapphire-cursors/col-resize_24.svg

<?xml version="1.0" encoding="UTF-8" standalone="no"?>
<svg
   id="svg5327"
   width="24"
   height="24"
   version="1.1"
   sodipodi:docname="col-resize_24.svg"
   inkscape:version="1.1.2 (0a00cf5339, 2022-02-04)"
   xmlns:inkscape="http://www.inkscape.org/namespaces/inkscape"
   xmlns:sodipodi="http://sodipodi.sourceforge.net/DTD/sodipodi-0.dtd"
   xmlns="http://www.w3.org/2000/svg"
   xmlns:svg="http://www.w3.org/2000/svg">
  <sodipodi:namedview
     id="namedview11"
     pagecolor="#ffffff"
     bordercolor="#666666"
     borderopacity="1.0"
     inkscape:pageshadow="2"
     inkscape:pageopacity="0.0"
     inkscape:pagecheckerboard="0"
     showgrid="true"
     inkscape:zoom="19.88"
     inkscape:cx="16.046278"
     inkscape:cy="11.971831"
     inkscape:window-width="936"
     inkscape:window-height="1020"
     inkscape:window-x="969"
     inkscape:window-y="45"
     inkscape:window-maximized="1"
     inkscape:current-layer="svg5327">
    <inkscape:grid
       type="xygrid"
       id="grid1180" />
  </sodipodi:namedview>
  <defs
     id="defs5329">
    <filter
       id="filter930"
       style="color-interpolation-filters:sRGB"
       width="1.113"
       height="1.128"
       x="-0.059999999"
       y="-0.059999999">
      <feGaussianBlur
         id="feGaussianBlur932"
         stdDeviation=".587" />
    </filter>
    <filter
       id="filter826"
       style="color-interpolation-filters:sRGB"
       width="1.1353616"
       height="1.1538182"
       x="-0.067680746"
       y="-0.076909088">
      <feGaussianBlur
         id="feGaussianBlur828"
         stdDeviation=".705" />
    </filter>
    <filter
       inkscape:collect="always"
       style="color-interpolation-filters:sRGB"
       id="filter1305"
       x="-0.021702664"
       y="-0.024255033"
       width="1.0434053"
       height="1.0485101">
      <feGaussianBlur
         inkscape:collect="always"
         stdDeviation="0.17180648"
         id="feGaussianBlur1307" />
    </filter>
  </defs>
  <path
     style="color:#000000;opacity:0.1;fill:#000000;fill-opacity:1;stroke-linecap:round;stroke-linejoin:round;-inkscape-stroke:none;filter:url(#filter1305)"
     d="m 11.499642,3.5 a 1.0001,1.0001 0 0 0 -1,1 v 15 a 1.0001,1.0001 0 0 0 1,1 h 1 a 1.0001,1.0001 0 0 0 1,-1 v -15 a 1.0001,1.0001 0 0 0 -1,-1 z M 9.8883143,7.328125 A 1.0001,1.0001 0 0 0 8.9683924,7.402344 l -6,3.753906 a 1.0001,1.0001 0 0 0 0.00195,1.695313 l 6,3.746093 A 1.0001,1.0001 0 0 0 10.237924,15.074219 C 9.6399434,14.421242 8.9988806,13.178199 8.9996424,12.003906 9.0004065,10.826061 9.6390885,9.5762609 10.23597,8.9277344 A 1.0001,1.0001 0 0 0 9.8883143,7.328125 Z m 5.1425777,0.074219 a 1.0001,1.0001 0 0 0 -1.267578,1.5253907 c 0.596879,0.6485237 1.235557,1.8983183 1.236328,3.0761713 7.62e-4,1.174293 -0.640301,2.417336 -1.238281,3.070313 a 1.0001,1.0001 0 0 0 1.267578,1.523437 l 6,-3.746093 a 1.0001,1.0001 0 0 0 0.002,-1.695313 z m -7.7851559,3.4375 c -0.079627,0.392279 -0.24582,0.74211 -0.2460937,1.164062 -2.735e-4,0.421662 0.1664662,0.768935 0.2460937,1.160157 l -1.859375,-1.160157 z m 9.5078119,0 1.859375,1.164062 -1.859375,1.160157 c 0.07963,-0.391222 0.246368,-0.738495 0.246094,-1.160157 -2.76e-4,-0.421951 -0.166467,-0.771784 -0.246094,-1.164062 z"
     id="path1267" />
  <path
     style="color:#000000;fill:#303446;stroke-linecap:round;stroke-linejoin:round;-inkscape-stroke:none;fill-opacity:1"
     d="m 11,3 a 1.0001,1.0001 0 0 0 -1,1 v 15 a 1.0001,1.0001 0 0 0 1,1 h 1 a 1.0001,1.0001 0 0 0 1,-1 V 4 A 1.0001,1.0001 0 0 0 12,3 Z M 9.3886719,6.828125 A 1.0001,1.0001 0 0 0 8.46875,6.9023437 l -6,3.7539063 a 1.0001,1.0001 0 0 0 0.00195,1.695313 l 6,3.746093 A 1.0001,1.0001 0 0 0 9.7382813,14.574219 C 9.140301,13.921242 8.4992382,12.678199 8.5,11.503906 8.5007641,10.326061 9.1394461,9.0762609 9.7363281,8.4277344 A 1.0001,1.0001 0 0 0 9.3886719,6.828125 Z m 5.1425781,0.074219 a 1.0001,1.0001 0 0 0 -1.267578,1.5253907 c 0.596879,0.6485237 1.235557,1.8983186 1.236328,3.0761716 7.62e-4,1.174293 -0.640301,2.417336 -1.238281,3.070313 a 1.0001,1.0001 0 0 0 1.267578,1.523437 l 6,-3.746093 a 1.0001,1.0001 0 0 0 0.002,-1.695313 z M 6.7460937,10.339844 c -0.079627,0.392279 -0.24582,0.74211 -0.2460937,1.164062 -2.735e-4,0.421662 0.1664662,0.768935 0.2460937,1.160157 l -1.859375,-1.160157 z m 9.5078123,0 1.859375,1.164062 -1.859375,1.160157 c 0.07963,-0.391222 0.246368,-0.738495 0.246094,-1.160157 -2.76e-4,-0.421951 -0.166467,-0.771784 -0.246094,-1.164062 z"
     id="path1207" />
  <path
     id="path1186"
     style="fill:#85C1DC;fill-opacity:1;stroke:none;stroke-width:0;stroke-linecap:round;stroke-linejoin:round;stroke-miterlimit:4;stroke-dasharray:none;stroke-dashoffset:0;stroke-opacity:1;paint-order:normal"
     d="M 11 4 L 11 19 L 12 19 L 12 4 L 11 4 z M 9 7.75 L 3 11.503906 L 9 15.25 C 8.2389855 14.418995 7.499025 13.006836 7.5 11.503906 C 7.500975 10.000977 8.23476 8.5814515 9 7.75 z M 14 7.75 C 14.76524 8.5814515 15.499016 10.000977 15.5 11.503906 C 15.500975 13.006836 14.761014 14.418995 14 15.25 L 20 11.503906 L 14 7.75 z " />
</svg>

<svg xmlns="http://www.w3.org/2000/svg" width="24" height="24">
    <defs>
        <filter id="a" width="1.043" height="1.049" x="-.022" y="-.024" style="color-interpolation-filters:sRGB">
            <feGaussianBlur stdDeviation=".172"/>
        </filter>
    </defs>
    <path d="M11.5 3.5a1 1 0 0 0-1 1v15a1 1 0 0 0 1 1h1a1 1 0 0 0 1-1v-15a1 1 0 0 0-1-1zM9.888 7.328a1 1 0 0 0-.92.074l-6 3.754a1 1 0 0 0 .002 1.696l6 3.746a1 1 0 0 0 1.268-1.524c-.598-.653-1.24-1.896-1.238-3.07 0-1.178.64-2.428 1.236-3.076a1 1 0 0 0-.348-1.6m5.143.074a1 1 0 0 0-1.268 1.526C14.36 9.576 15 10.826 15 12.004c0 1.174-.64 2.417-1.239 3.07a1 1 0 0 0 1.268 1.524l6-3.746a1 1 0 0 0 .002-1.696zM7.246 10.84c-.08.392-.246.742-.246 1.164s.166.769.246 1.16l-1.86-1.16zm9.508 0 1.859 1.164-1.86 1.16c.08-.391.247-.738.247-1.16s-.167-.772-.246-1.164" style="color:#000;opacity:.1;fill:#000;fill-opacity:1;stroke-linecap:round;stroke-linejoin:round;-inkscape-stroke:none;filter:url(#a)"/>
    <path d="M11 3a1 1 0 0 0-1 1v15a1 1 0 0 0 1 1h1a1 1 0 0 0 1-1V4a1 1 0 0 0-1-1ZM9.389 6.828a1 1 0 0 0-.92.074l-6 3.754a1 1 0 0 0 .002 1.696l6 3.746a1 1 0 0 0 1.267-1.524c-.598-.653-1.239-1.896-1.238-3.07 0-1.178.64-2.428 1.236-3.076a1 1 0 0 0-.347-1.6m5.142.074a1 1 0 0 0-1.267 1.526c.597.648 1.235 1.898 1.236 3.076 0 1.174-.64 2.417-1.238 3.07a1 1 0 0 0 1.267 1.524l6-3.746a1 1 0 0 0 .002-1.696zM6.746 10.34c-.08.392-.246.742-.246 1.164s.166.769.246 1.16l-1.86-1.16zm9.508 0 1.86 1.164-1.86 1.16c.08-.391.246-.738.246-1.16s-.166-.772-.246-1.164" style="color:#000;fill:#303446;stroke-linecap:round;stroke-linejoin:round;-inkscape-stroke:none;fill-opacity:1"/>
    <path d="M11 4v15h1V4zM9 7.75l-6 3.754 6 3.746c-.761-.831-1.501-2.243-1.5-3.746S8.235 8.58 9 7.75m5 0c.765.831 1.499 2.251 1.5 3.754s-.739 2.915-1.5 3.746l6-3.746z" style="fill:#85c1dc;fill-opacity:1;stroke:none;stroke-width:0;stroke-linecap:round;stroke-linejoin:round;stroke-miterlimit:4;stroke-dasharray:none;stroke-dashoffset:0;stroke-opacity:1;paint-order:normal"/>
</svg>
